X:1
T:Title
L:1/8
Q:1/4=120
M:4/4
K:F
V:1 treble nm="Church Organ, Staff"
V:1
 c2 d2 c2 A2 | B2 A2- A/ z/ G F2 | G2 c2 d2 B2 | A2 G4 F2 | c2 d2 c2 A2 | B2 A2- A/ z/ G G2 | %6
w: By~Niels~W.~Gade * * *||||||
 c2 e2 d2 c2- | c=B B4 A2 | c2 f2- f/ z/ f c2 | d2 B2 cB A2 | c2 A2 c2 F2 | B2 A2- A/ z/ G F2 | %12
w: ||||||
 d>d c2- cB A2 | f>f e2- ed c2 | d2 B4 G2- | G2 F6 |] %16
w: ||||

